X: 29
T:Queen Ru... House. JBa.28
M:C|
L:1/8
Q:180
S:Joseph Barnes MS,Carlisle,1762.
R:reel
O:England
A:Carlisle
N:1 - not shown as triplet in MS
Z:vmp.C.Graebe.
K:D major
B | AFED (G2 GB) | AFED  E/E/E EB | AFED BcdB |\
 AFdF D/D/D D :|!
|: e | defd gfed | defd ecBA | defd gfeg |\
"1"(3fga) Ac  d3d |]
